SVG_Azure_Grouped/Endpoint/Intune.svg

<?xml version="1.0" encoding="UTF-8" standalone="no"?>
<!-- Generated by Microsoft Visio, SVG Export Intune.svg Page-1 -->

<svg
   xmlns:dc="http://purl.org/dc/elements/1.1/"
   xmlns:cc="http://creativecommons.org/ns#"
   xmlns:rdf="http://www.w3.org/1999/02/22-rdf-syntax-ns#"
   xmlns:svg="http://www.w3.org/2000/svg"
   xmlns="http://www.w3.org/2000/svg"
   xmlns:sodipodi="http://sodipodi.sourceforge.net/DTD/sodipodi-0.dtd"
   xmlns:inkscape="http://www.inkscape.org/namespaces/inkscape"
   width="0.78744411in"
   height="0.70868134in"
   viewBox="0 0 56.695795 51.024902"
   xml:space="preserve"
   class="st7"
   version="1.1"
   id="svg62"
   sodipodi:docname="Intune.svg"
   style="font-size:12px;overflow:visible;color-interpolation-filters:sRGB;fill:none;fill-rule:evenodd;stroke-linecap:square;stroke-miterlimit:3"
   inkscape:version="0.92.5 (2060ec1f9f, 2020-04-08)"><metadata
   id="metadata66"><rdf:RDF><cc:Work
       rdf:about=""><dc:format>image/svg+xml</dc:format><dc:type
         rdf:resource="http://purl.org/dc/dcmitype/StillImage" /></cc:Work></rdf:RDF></metadata><sodipodi:namedview
   pagecolor="#ffffff"
   bordercolor="#666666"
   borderopacity="1"
   objecttolerance="10"
   gridtolerance="10"
   guidetolerance="10"
   inkscape:pageopacity="0"
   inkscape:pageshadow="2"
   inkscape:window-width="640"
   inkscape:window-height="480"
   id="namedview64"
   showgrid="false"
   inkscape:zoom="1.4879781"
   inkscape:cx="37.795061"
   inkscape:cy="33.943842"
   inkscape:window-x="0"
   inkscape:window-y="0"
   inkscape:window-maximized="0"
   inkscape:current-layer="svg62" />
	<style
   type="text/css"
   id="style2">
	<![CDATA[
		.st1 {fill:url(#grad0-5);stroke:none;stroke-linecap:butt;stroke-width:33.9138}
		.st2 {fill:#ffffff;stroke:none;stroke-linecap:butt;stroke-width:33.9138}
		.st3 {fill:url(#grad0-11);stroke:none;stroke-linecap:butt;stroke-width:33.9138}
		.st4 {fill:#32bedd;stroke:none;stroke-linecap:butt;stroke-width:33.9138}
		.st5 {fill:url(#grad0-19);stroke:none;stroke-linecap:butt;stroke-width:33.9138}
		.st6 {fill:#0078d4;stroke:none;stroke-linecap:butt;stroke-width:33.9138}
		.st7 {fill:none;fill-rule:evenodd;font-size:12px;overflow:visible;stroke-linecap:square;stroke-miterlimit:3}
	]]>
	</style>

	<defs
   id="Patterns_And_Gradients">
		<linearGradient
   id="grad0-5"
   x1="-9.095898e-07"
   y1="105.75516"
   x2="40.877041"
   y2="105.75516"
   gradientTransform="scale(1.2327214,0.81121334)"
   gradientUnits="userSpaceOnUse">
			<stop
   offset="0"
   stop-color="#0078d4"
   stop-opacity="1"
   id="stop4" />
			<stop
   offset="0.82"
   stop-color="#5ea0ef"
   stop-opacity="1"
   id="stop6" />
		</linearGradient>
		<linearGradient
   id="grad0-11"
   x1="0"
   y1="149.91439"
   x2="17.840235"
   y2="149.91439"
   gradientTransform="scale(1.4102953,0.70907136)"
   gradientUnits="userSpaceOnUse">
			<stop
   offset="0"
   stop-color="#1490df"
   stop-opacity="1"
   id="stop9" />
			<stop
   offset="0.98"
   stop-color="#1f56a3"
   stop-opacity="1"
   id="stop11" />
		</linearGradient>
		<linearGradient
   id="grad0-19"
   x1="0"
   y1="110.00226"
   x2="9.6839175"
   y2="110.00226"
   gradientTransform="scale(1.006161,0.99387675)"
   gradientUnits="userSpaceOnUse">
			<stop
   offset="0"
   stop-color="#d2ebff"
   stop-opacity="1"
   id="stop14" />
			<stop
   offset="1"
   stop-color="#f0fffd"
   stop-opacity="1"
   id="stop16" />
		</linearGradient>
	</defs>
	<g
   id="g60"
   transform="translate(-33.913799,-33.909399)">
		<title
   id="title20">Page-1</title>
		<g
   id="group19894-1"
   transform="translate(33.9138,-34.0157)">
			<title
   id="title22">Intune.19894</title>
			<g
   id="shape19895-2"
   transform="translate(0,-17.8649)">
				<title
   id="title24">rect21</title>
				<path
   d="m 0,117.31 a 1.66846,1.64809 -180 0 0 1.67,1.64 h 47.05 a 1.66846,1.64809 -180 0 0 1.67,-1.64 V 87.44 A 1.66846,1.64809 -180 0 0 48.72,85.79 H 1.67 A 1.66846,1.64809 -180 0 0 0,87.44 Z"
   class="st1"
   id="path26"
   inkscape:connector-curvature="0"
   style="fill:url(#grad0-5);stroke:none;stroke-width:33.91379929;stroke-linecap:butt" />
			</g>
			<g
   id="shape19896-6"
   transform="translate(2.80295,-20.6006)">
				<title
   id="title29">rect23</title>
				<path
   d="m 0,118.03 a 0.934337,0.922929 -180 0 0 0.934315,0.92291 L 43.85,118.95 a 0.934337,0.922929 -180 0 0 0.934315,-0.92291 L 44.78,92.22 A 0.934337,0.922929 -180 0 0 43.845685,91.297092 L 0.93,91.3 a 0.934337,0.922929 -180 0 0 -0.934315,0.922908 z"
   class="st2"
   id="path31"
   inkscape:connector-curvature="0"
   style="fill:#ffffff;stroke:none;stroke-width:33.91379929;stroke-linecap:butt" />
			</g>
			<g
   id="shape19897-8"
   transform="translate(12.4798,-5.04303)">
				<title
   id="title34">path25</title>
				<path
   d="m 22.82,116.18 c -5,-0.75 -5.2,-4.31 -5.17,-9.88 H 7.64 c 0,5.73 -0.2,9.29 -5.17,9.88 A 2.90305,2.86761 -180 0 0 0,118.95 h 25.16 a 2.93642,2.90057 -180 0 0 -2.34,-2.77 z"
   class="st3"
   id="path36"
   inkscape:connector-curvature="0"
   style="fill:url(#grad0-11);stroke:none;stroke-width:33.91379929;stroke-linecap:butt" />
			</g>
			<g
   id="shape19898-12"
   transform="translate(17.4058)">
				<title
   id="title39">path27</title>
				<path
   d="M 38.22,83.26 H 15.26 a 7.7081,7.61399 -180 1 0 0,3.03 h 2.37 v 31.58 a 1.10116,1.08771 -180 0 0 1.1,1.08 h 19.46 a 1.10116,1.08771 -180 0 0 1.1,-1.08 V 84.34 a 1.10116,1.08771 -180 0 0 -1.07,-1.08 z"
   class="st4"
   id="path41"
   inkscape:connector-curvature="0"
   style="fill:#32bedd;stroke:none;stroke-width:33.91379929;stroke-linecap:butt" />
			</g>
			<g
   id="shape19899-14"
   transform="translate(37.1057,-4.02124)">
				<title
   id="title44">rect29</title>
				<path
   d="m 0,118.56 a 0.40043,0.395541 -180 0 0 0.400421,0.39553 L 17.18,118.95 a 0.40043,0.395541 -180 0 0 0.400421,-0.39553 L 17.59,90.67 A 0.40043,0.395541 -180 0 0 17.189579,90.274468 L 0.4,90.28 a 0.40043,0.395541 -180 0 0 -0.400421,0.395532 z"
   class="st2"
   id="path46"
   inkscape:connector-curvature="0"
   style="fill:#ffffff;stroke:none;stroke-width:33.91379929;stroke-linecap:butt" />
			</g>
			<g
   id="shape19900-16"
   transform="translate(20.3214,-29.2364)">
				<title
   id="title49">circle31</title>
				<ellipse
   cx="4.8717899"
   cy="114.141"
   rx="4.8717899"
   ry="4.8123102"
   class="st5"
   id="ellipse51"
   style="fill:url(#grad0-19);stroke:none;stroke-width:33.91379929;stroke-linecap:butt" />
			</g>
			<g
   id="shape19901-20"
   transform="translate(35.0368,-15.3043)">
				<title
   id="title54">path33</title>
				<path
   d="m 12.95,114.74 -3.74,-3.69 a 0.20021,0.197766 -180 0 0 -0.333685,0.1648 L 8.88,113.46 a 0.20021,0.197766 0 0 1 -0.20021,0.19777 L 0,113.66 v 2.73 h 8.68 a 0.20021,0.197766 0 0 1 0.20021,0.19777 L 8.88,118.86 a 0.20021,0.197766 -180 0 0 0.333685,0 L 12.95,115.34 a 0.400421,0.395532 -180 0 0 0,-0.5933 z"
   class="st6"
   id="path56"
   inkscape:connector-curvature="0"
   style="fill:#0078d4;stroke:none;stroke-width:33.91379929;stroke-linecap:butt" />
			</g>
		</g>
	</g>
</svg>

<?xml version="1.0" encoding="UTF-8" standalone="no"?>
<!DOCTYPE svg PUBLIC "-//W3C//DTD SVG 1.1//EN" "http://www.w3.org/Graphics/SVG/1.1/DTD/svg11.dtd">
<!-- Generated by Microsoft Visio, SVG Export Intune.svg Page-1 -->
<svg xmlns="http://www.w3.org/2000/svg" xmlns:xlink="http://www.w3.org/1999/xlink" xmlns:ev="http://www.w3.org/2001/xml-events"
		width="1.72945in" height="1.65213in" viewBox="0 0 124.52 118.953" xml:space="preserve" color-interpolation-filters="sRGB"
		class="st7">
	<style type="text/css">
	<![CDATA[
		.st1 {fill:url(#grad0-5);stroke:none;stroke-linecap:butt;stroke-width:33.9138}
		.st2 {fill:#ffffff;stroke:none;stroke-linecap:butt;stroke-width:33.9138}
		.st3 {fill:url(#grad0-11);stroke:none;stroke-linecap:butt;stroke-width:33.9138}
		.st4 {fill:#32bedd;stroke:none;stroke-linecap:butt;stroke-width:33.9138}
		.st5 {fill:url(#grad0-19);stroke:none;stroke-linecap:butt;stroke-width:33.9138}
		.st6 {fill:#0078d4;stroke:none;stroke-linecap:butt;stroke-width:33.9138}
		.st7 {fill:none;fill-rule:evenodd;font-size:12px;overflow:visible;stroke-linecap:square;stroke-miterlimit:3}
	]]>
	</style>

	<defs id="Patterns_And_Gradients">
		<linearGradient id="grad0-5" x1="0" y1="0" x2="1" y2="0" gradientTransform="rotate(-90 0.5 0.5)">
			<stop offset="0" stop-color="#0078d4" stop-opacity="1"/>
			<stop offset="0.82" stop-color="#5ea0ef" stop-opacity="1"/>
		</linearGradient>
		<linearGradient id="grad0-11" x1="0" y1="0" x2="1" y2="0" gradientTransform="rotate(-90 0.5 0.5)">
			<stop offset="0" stop-color="#1490df" stop-opacity="1"/>
			<stop offset="0.98" stop-color="#1f56a3" stop-opacity="1"/>
		</linearGradient>
		<linearGradient id="grad0-19" x1="0" y1="0" x2="1" y2="0" gradientTransform="rotate(-90 0.5 0.5)">
			<stop offset="0" stop-color="#d2ebff" stop-opacity="1"/>
			<stop offset="1" stop-color="#f0fffd" stop-opacity="1"/>
		</linearGradient>
	</defs>
	<g>
		<title>Page-1</title>
		<g id="group19439-1" transform="translate(33.9138,-34.0157)">
			<title>Intune.19439</title>
			<g id="shape19440-2" transform="translate(0,-17.8649)">
				<title>rect21</title>
				<path d="M0 117.31 A1.66846 1.64809 -180 0 0 1.67 118.95 L48.72 118.95 A1.66846 1.64809 -180 0 0 50.39 117.31 L50.39
							 87.44 A1.66846 1.64809 -180 0 0 48.72 85.79 L1.67 85.79 A1.66846 1.64809 -180 0 0 -0 87.44 L0 117.31
							 Z" class="st1"/>
			</g>
			<g id="shape19441-6" transform="translate(2.80295,-20.6006)">
				<title>rect23</title>
				<path d="M0 118.03 a0.934337 0.922929 -180 0 0 0.934315 0.922908 L43.85 118.95 a0.934337 0.922929 -180 0 0 0.934315
							 -0.922908 L44.78 92.22 a0.934337 0.922929 -180 0 0 -0.934315 -0.922908 L0.93 91.3 a0.934337 0.922929
							 -180 0 0 -0.934315 0.922908 L0 118.03 Z" class="st2"/>
			</g>
			<g id="shape19442-8" transform="translate(12.4798,-5.04303)">
				<title>path25</title>
				<path d="M22.82 116.18 C17.82 115.43 17.62 111.87 17.65 106.3 L7.64 106.3 C7.64 112.03 7.44 115.59 2.47 116.18 A2.90305
							 2.86761 -180 0 0 0 118.95 L25.16 118.95 A2.93642 2.90057 -180 0 0 22.82 116.18 Z" class="st3"/>
			</g>
			<g id="shape19443-12" transform="translate(17.4058,2.55795E-13)">
				<title>path27</title>
				<path d="M38.22 83.26 L15.26 83.26 A7.7081 7.61399 -180 1 0 15.26 86.29 L17.63 86.29 L17.63 117.87 A1.10116 1.08771
							 -180 0 0 18.73 118.95 L38.19 118.95 A1.10116 1.08771 -180 0 0 39.29 117.87 L39.29 84.34 A1.10116 1.08771
							 -180 0 0 38.22 83.26 Z" class="st4"/>
			</g>
			<g id="shape19444-14" transform="translate(37.1057,-4.02124)">
				<title>rect29</title>
				<path d="M0 118.56 a0.40043 0.395541 -180 0 0 0.400421 0.395532 L17.18 118.95 a0.40043 0.395541 -180 0 0 0.400421
							 -0.395532 L17.59 90.67 a0.40043 0.395541 -180 0 0 -0.400421 -0.395532 L0.4 90.28 a0.40043 0.395541 -180
							 0 0 -0.400421 0.395532 L0 118.56 Z" class="st2"/>
			</g>
			<g id="shape19445-16" transform="translate(20.3214,-29.2364)">
				<title>circle31</title>
				<ellipse cx="4.87179" cy="114.141" rx="4.87179" ry="4.81231" class="st5"/>
			</g>
			<g id="shape19446-20" transform="translate(35.0368,-15.3043)">
				<title>path33</title>
				<path d="M12.95 114.74 L9.21 111.05 a0.20021 0.197766 -180 0 0 -0.333685 0.164805 L8.88 113.46 a0.20021 0.197766
							 0 0 1 -0.20021 0.197766 L0 113.66 L0 116.39 L8.68 116.39 a0.20021 0.197766 0 0 1 0.20021 0.197766 L8.88
							 118.86 a0.20021 0.197766 -180 0 0 0.333685 0 L12.95 115.34 a0.400421 0.395532 -180 0 0 -1.59872E-14
							 -0.593298 Z" class="st6"/>
			</g>
		</g>
	</g>
</svg>
